src/topics/icons/targetprocess.svg

<svg height="267" preserveAspectRatio="xMidYMid" viewBox="0 0 256 267" width="256" xmlns="http://www.w3.org/2000/svg"><path d="m213.217649 64.4498944-.017603-.0158427-38.930814 14.1686614 7.189069-40.7773688.003521-.0228839-31.791033-26.6755988-.017604-.0158427-38.999464 14.1933056-.022884.0088015-7.19259 40.8002527-31.7206206-26.6139883-.017603-.0158427-38.9994649 14.1933056-.0228839.0088015-7.2066716 40.872425-.0035206.0228839 31.7364637 26.6315913-38.9096896 14.16162-.022884.008802-7.2066716 40.870664-.0052809.022884 31.7927934 26.67736.017603.015842 38.9308132-14.168661-7.1890686 40.775608-.0035206.022884 31.7927936 26.677359.017603.015843 38.999465-14.193306.022884-.008801 7.194349-40.798492 31.718861 26.613988.017603.015843 38.999465-14.193306.022884-.008802 7.206671-40.872425.003521-.022884-31.736464-26.631591 38.90969-14.16162.022884-.008802 7.206671-40.8706643.005281-.0228839zm-92.301375 110.1138586 38.839278-14.136976-7.176747 40.705196zm14.240834-81.7237268-38.8392774 14.1352158 7.1767464-40.7034363zm-77.789454 28.4006938 38.8410379-14.136976-7.1785068 40.705196zm63.383152 53.294868-38.8410377 14.136976 7.1785067-40.705197zm-31.6449279-26.663277 7.1925892-40.800253 38.9308127-14.168661 31.736464 26.629831-7.192589 40.800253-38.930813 14.170421zm77.9355589-28.279233 31.662531 26.568221-38.841038 14.136976zm-31.720621-26.724887 38.841038-14.136976-7.178507 40.705196zm-24.616047-67.4916942 38.930813-14.1704217 31.736464 26.629831-7.194349 40.8002527-38.930814 14.1704217-31.736463-26.629831zm-85.1475113 69.1727815 7.1943495-40.8002527 38.9308132-14.1704217 31.7364636 26.629831-7.1943494 40.8002531-38.9308132 14.170421zm17.331922 108.3253927-31.7364637-26.631591 7.1943495-40.800253 38.9308132-14.170422 31.7364637 26.629831-7.1943495 40.802013zm102.4776733 39.152611-38.930813 14.170422-31.736464-26.629831 7.1943495-40.800253 38.9308135-14.170422 31.736463 26.629831zm85.147512-69.172781-7.19435 40.800252-38.930813 14.168662-31.736464-26.628071 7.19435-40.800253 38.930813-14.170421zm7.211952-40.895309-38.930813 14.170421-31.738224-26.631591 7.194349-40.8002527 38.930814-14.1704217 31.736463 26.629831z" fill="#1a1a1a"/><path d="m238.176954 99.2334388-95.32205-79.9827889c-4.469404-3.7494408-5.052064-10.41217942-1.302623-14.87982293 3.754722-4.46940382 10.41394-5.05030309 14.879823-1.30262262l95.32205 79.98454925c4.469404 3.7494408 5.052064 10.4121794 1.302623 14.8798229-2.089477 2.4890655-5.083749 3.7723245-8.095624 3.7723245-2.395769 0-4.80386-.809738-6.784199-2.4714622z" fill="#649791"/><path d="m104.946825 266.808797c-4.33034 0-8.3913538-2.682698-9.9404186-6.993675-1.9732972-5.488618.8783902-11.538772 6.3670086-13.512069l118.410156-42.558793c5.485097-1.975058 11.538772.876629 13.512069 6.367008 1.973297 5.488618-.87839 11.538772-6.367008 13.512069l-118.410156 42.558793c-1.179402.425993-2.385208.626667-3.571651.626667z" fill="#efc519"/><path d="m11.1192703 188.040616c-.6037832 0-1.21284731-.051049-1.8289526-.160188-5.74738222-1.001611-9.59187924-6.474386-8.58850776-12.220008l21.60769276-123.7597102c1.0033714-5.745622 6.477907-9.590119 12.2200083-8.5885078 5.7473823 1.0033715 9.5918793 6.4743865 8.5885078 12.2200084l-21.6076927 123.7614706c-.8942328 5.133037-5.3548352 8.746935-10.3910558 8.746935z" fill="#a21c3d"/><path d="m64.500393 90.9424219c-.6090641 0-1.2251694-.052809-1.8465556-.1619477-5.7438616-1.0121729-9.5795571-6.4902291-8.5673841-12.235851l7.203151-40.8477809c1.012173-5.7438616 6.4849483-9.5830777 12.2358511-8.5673841 5.7438616 1.012173 9.5795571 6.4902291 8.5673841 12.2358511l-7.203151 40.8477808c-.9030343 5.1242357-5.360116 8.7293318-10.3892955 8.7293318z" fill="#068cba"/><path d="m42.8927003 213.484004c-.6090641 0-1.2251694-.052809-1.8465556-.161948-5.7438616-1.013933-9.5795571-6.491989-8.5673841-12.235851l7.203151-40.84602c1.012173-5.745622 6.4884688-9.572516 12.2358511-8.567384 5.7438616 1.013933 9.5795571 6.491989 8.5673841 12.235851l-7.203151 40.84602c-.9030343 5.124236-5.360116 8.729332-10.3892955 8.729332z" fill="#531210"/><path d="m142.435952 62.5681328c-2.395769 0-4.803861-.8097384-6.784199-2.4714624l-31.77343-26.6597561c-4.4694042-3.7494408-5.0520637-10.4104191-1.302623-14.8798229 3.751201-4.4694038 10.41394-5.0503031 14.879823-1.3026226l31.77519 26.6615164c4.469404 3.7494407 5.052064 10.4104191 1.302623 14.8798229-2.089477 2.4890654-5.083749 3.7723247-8.097384 3.7723247z" fill="#509f4e"/><path d="m237.758002 142.552682c-2.395769 0-4.803861-.811499-6.784199-2.471462l-31.77519-26.661517c-4.469404-3.749441-5.052064-10.412179-1.302623-14.8798227 3.754722-4.4694038 10.41394-5.0503031 14.879823-1.3026226l31.77519 26.6615163c4.469404 3.749441 5.052064 10.41218 1.302623 14.879823-2.089477 2.490826-5.081989 3.774085-8.095624 3.774085z" fill="#106e66"/><path d="m191.583551 197.590248c-4.312737 0-8.363189-2.665096-9.924576-6.951428-1.996181-5.481577.830862-11.544053 6.310679-13.536714l38.976581-14.188024c5.485097-1.996181 11.544053.832622 13.536713 6.310678 1.996181 5.481577-.830862 11.544053-6.310678 13.536714l-38.976581 14.188024c-1.191724.434795-2.411613.64075-3.612138.64075z" fill="#068cba"/><path d="m120.828259 185.111475c-2.395769 0-4.803861-.811498-6.784199-2.469702l-31.7734301-26.661516c-4.4676435-3.751201-5.0503031-10.41218-1.3008623-14.879823 3.7512011-4.469404 10.4139397-5.046783 14.8798229-1.302623l31.7734305 26.661517c4.469403 3.751201 5.052063 10.412179 1.302622 14.879823-2.089477 2.490825-5.083749 3.772324-8.097384 3.772324z" fill="#92beaf"/><path d="m159.820683 170.926971c-.609064 0-1.225169-.052809-1.846555-.161948-5.745622-1.013933-9.579558-6.491989-8.567385-12.235851l7.203151-40.84778c1.013934-5.742102 6.486709-9.583078 12.235851-8.567385 5.745622 1.012173 9.579558 6.49199 8.567385 12.235852l-7.203151 40.84778c-.903035 5.124236-5.358356 8.729332-10.389296 8.729332z" fill="#4b635b"/><path d="m96.2632612 117.605699c-4.3144973 0-8.3649495-2.663336-9.9263364-6.951428-1.9944208-5.481577.830862-11.5422929 6.3124388-13.5367138l38.9783414-14.1862644c5.476296-1.9926605 11.542293.830862 13.534953 6.3124388 1.996181 5.4815768-.830862 11.5422924-6.312439 13.5367134l-38.9765808 14.186264c-1.1917236.433034-2.4116121.63899-3.610377.63899z" fill="#b9bc63"/><path d="m74.6555685 240.149041c-4.3144973 0-8.3649495-2.665095-9.9263364-6.953188-1.9944208-5.479817.830862-11.542293 6.3124388-13.534953l38.9765811-14.188025c5.481577-1.997941 11.544053.830862 13.536713 6.312439 1.994421 5.479816-.830862 11.542292-6.312438 13.534953l-38.9765815 14.188025c-1.1917236.434794-2.4116121.640749-3.610377.640749z" fill="#e38b25"/></svg>

<?xml version="1.0" encoding="UTF-8" standalone="no"?>
<svg width="256px" height="267px" viewBox="0 0 256 267" version="1.1" xmlns="http://www.w3.org/2000/svg" xmlns:xlink="http://www.w3.org/1999/xlink" preserveAspectRatio="xMidYMid">
    <g>
        <path d="M213.217649,64.4498944 L213.200046,64.4340517 L174.269232,78.6027131 L181.458301,37.8253443 L181.461822,37.8024604 L149.670789,11.1268616 L149.653185,11.1110189 L110.653721,25.3043245 L110.630837,25.313126 L103.438247,66.1133787 L71.7176264,39.4993904 L71.7000234,39.4835477 L32.7005585,53.6768533 L32.6776746,53.6856548 L25.471003,94.5580798 L25.4674824,94.5809637 L57.2039461,121.212555 L18.2942565,135.374175 L18.2713725,135.382977 L11.0647009,176.253641 L11.05942,176.276525 L42.8522134,202.953885 L42.8698164,202.969727 L81.8006296,188.801066 L74.611561,229.576674 L74.6080404,229.599558 L106.400834,256.276917 L106.418437,256.29276 L145.417902,242.099454 L145.440786,242.090653 L152.635135,201.292161 L184.353996,227.906149 L184.371599,227.921992 L223.371064,213.728686 L223.393948,213.719884 L230.600619,172.847459 L230.60414,172.824575 L198.867676,146.192984 L237.777366,132.031364 L237.80025,132.022562 L245.006921,91.1518977 L245.012202,91.1290138 L213.217649,64.4498944 L213.217649,64.4498944 Z M120.916274,174.563753 L159.755552,160.426777 L152.578805,201.131973 L120.916274,174.563753 L120.916274,174.563753 Z M135.157108,92.8400262 L96.3178306,106.975242 L103.494577,66.2718057 L135.157108,92.8400262 L135.157108,92.8400262 Z M57.367654,121.24072 L96.2086919,107.103744 L89.0301851,147.80894 L57.367654,121.24072 L57.367654,121.24072 Z M120.750806,174.535588 L81.9097683,188.672564 L89.088275,147.967367 L120.750806,174.535588 L120.750806,174.535588 Z M89.1058781,147.872311 L96.2984673,107.072058 L135.22928,92.903397 L166.965744,119.533228 L159.773155,160.333481 L120.842342,174.503902 L89.1058781,147.872311 L89.1058781,147.872311 Z M167.041437,119.593078 L198.703968,146.161299 L159.86293,160.298275 L167.041437,119.593078 L167.041437,119.593078 Z M135.320816,92.868191 L174.161854,78.731215 L166.983347,119.436411 L135.320816,92.868191 L135.320816,92.868191 Z M110.704769,25.3764968 L149.635582,11.2060751 L181.372046,37.8359061 L174.177697,78.6361588 L135.246883,92.8065805 L103.51042,66.1767495 L110.704769,25.3764968 L110.704769,25.3764968 Z M25.5572577,94.5492783 L32.7516072,53.7490256 L71.6824204,39.5786039 L103.418884,66.2084349 L96.2245346,107.008688 L57.2937214,121.179109 L25.5572577,94.5492783 L25.5572577,94.5492783 Z M42.8891797,202.874671 L11.152716,176.24308 L18.3470655,135.442827 L57.2778787,121.272405 L89.0143424,147.902236 L81.8199929,188.704249 L42.8891797,202.874671 L42.8891797,202.874671 Z M145.366853,242.027282 L106.43604,256.197704 L74.699576,229.567873 L81.8939255,188.76762 L120.824739,174.597198 L152.561202,201.227029 L145.366853,242.027282 L145.366853,242.027282 Z M230.514365,172.854501 L223.320015,213.654753 L184.389202,227.823415 L152.652738,201.195344 L159.847088,160.395091 L198.777901,146.22467 L230.514365,172.854501 L230.514365,172.854501 Z M237.726317,131.959192 L198.795504,146.129613 L167.05728,119.498022 L174.251629,78.6977693 L213.182443,64.5273476 L244.918906,91.1571786 L237.726317,131.959192 L237.726317,131.959192 Z" fill="#1A1A1A"></path>
        <path d="M238.176954,99.2334388 L142.854904,19.2506499 C138.3855,15.5012091 137.80284,8.83847048 141.552281,4.37082697 C145.307003,-0.0985768466 151.966221,-0.679476121 156.432104,3.06820435 L251.754154,83.0527536 C256.223558,86.8021944 256.806218,93.464933 253.056777,97.9325765 C250.9673,100.421642 247.973028,101.704901 244.961153,101.704901 C242.565384,101.704901 240.157293,100.895163 238.176954,99.2334388 Z" fill="#649791"></path>
        <path d="M104.946825,266.808797 C100.616485,266.808797 96.5554712,264.126099 95.0064064,259.815122 C93.0331092,254.326504 95.8847966,248.27635 101.373415,246.303053 L219.783571,203.74426 C225.268668,201.769202 231.322343,204.620889 233.29564,210.111268 C235.268937,215.599886 232.41725,221.65004 226.928632,223.623337 L108.518476,266.18213 C107.339074,266.608123 106.133268,266.808797 104.946825,266.808797 L104.946825,266.808797 Z" fill="#EFC519"></path>
        <path d="M11.1192703,188.040616 C10.5154871,188.040616 9.90642299,187.989567 9.2903177,187.880428 C3.54293548,186.878817 -0.301561536,181.406042 0.701809938,175.66042 L22.3095027,51.9007098 C23.3128741,46.1550878 28.7874097,42.3105908 34.529511,43.312202 C40.2768933,44.3155735 44.1213903,49.7865885 43.1180188,55.5322104 L21.5103261,179.293681 C20.6160933,184.426718 16.1554909,188.040616 11.1192703,188.040616 L11.1192703,188.040616 Z" fill="#A21C3D"></path>
        <path d="M64.500393,90.9424219 C63.8913289,90.9424219 63.2752236,90.8896129 62.6538374,90.7804742 C56.9099758,89.7683013 53.0742803,84.2902451 54.0864533,78.5446232 L61.2896043,37.6968423 C62.3017773,31.9529807 67.7745526,28.1137646 73.5254554,29.1294582 C79.269317,30.1416312 83.1050125,35.6196873 82.0928395,41.3653093 L74.8896885,82.2130901 C73.9866542,87.3373258 69.5295725,90.9424219 64.500393,90.9424219 L64.500393,90.9424219 Z" fill="#068CBA"></path>
        <path d="M42.8927003,213.484004 C42.2836362,213.484004 41.6675309,213.431195 41.0461447,213.322056 C35.3022831,212.308123 31.4665876,206.830067 32.4787606,201.086205 L39.6819116,160.240185 C40.6940846,154.494563 46.1703804,150.667669 51.9177627,151.672801 C57.6616243,152.686734 61.4973198,158.16479 60.4851468,163.908652 L53.2819958,204.754672 C52.3789615,209.878908 47.9218798,213.484004 42.8927003,213.484004 L42.8927003,213.484004 Z" fill="#531210"></path>
        <path d="M142.435952,62.5681328 C140.040183,62.5681328 137.632091,61.7583944 135.651753,60.0966704 L103.878323,33.4369143 C99.4089188,29.6874735 98.8262593,23.0264952 102.5757,18.5570914 C106.326901,14.0876876 112.98964,13.5067883 117.455523,17.2544688 L149.230713,43.9159852 C153.700117,47.6654259 154.282777,54.3264043 150.533336,58.7958081 C148.443859,61.2848735 145.449587,62.5681328 142.435952,62.5681328 L142.435952,62.5681328 Z" fill="#509F4E"></path>
        <path d="M237.758002,142.552682 C235.362233,142.552682 232.954141,141.741183 230.973803,140.08122 L199.198613,113.419703 C194.729209,109.670262 194.146549,103.007524 197.89599,98.5398803 C201.650712,94.0704765 208.30993,93.4895772 212.775813,97.2372577 L244.551003,123.898774 C249.020407,127.648215 249.603067,134.310954 245.853626,138.778597 C243.764149,141.269423 240.771637,142.552682 237.758002,142.552682 L237.758002,142.552682 Z" fill="#106E66"></path>
        <path d="M191.583551,197.590248 C187.270814,197.590248 183.220362,194.925152 181.658975,190.63882 C179.662794,185.157243 182.489837,179.094767 187.969654,177.102106 L226.946235,162.914082 C232.431332,160.917901 238.490288,163.746704 240.482948,169.22476 C242.479129,174.706337 239.652086,180.768813 234.17227,182.761474 L195.195689,196.949498 C194.003965,197.384293 192.784076,197.590248 191.583551,197.590248 L191.583551,197.590248 Z" fill="#068CBA"></path>
        <path d="M120.828259,185.111475 C118.43249,185.111475 116.024398,184.299977 114.04406,182.641773 L82.2706299,155.980257 C77.8029864,152.229056 77.2203268,145.568077 80.9697676,141.100434 C84.7209687,136.63103 91.3837073,136.053651 95.8495905,139.797811 L127.623021,166.459328 C132.092424,170.210529 132.675084,176.871507 128.925643,181.339151 C126.836166,183.829976 123.841894,185.111475 120.828259,185.111475 L120.828259,185.111475 Z" fill="#92BEAF"></path>
        <path d="M159.820683,170.926971 C159.211619,170.926971 158.595514,170.874162 157.974128,170.765023 C152.228506,169.75109 148.39457,164.273034 149.406743,158.529172 L156.609894,117.681392 C157.623828,111.93929 163.096603,108.098314 168.845745,109.114007 C174.591367,110.12618 178.425303,115.605997 177.41313,121.349859 L170.209979,162.197639 C169.306944,167.321875 164.851623,170.926971 159.820683,170.926971 L159.820683,170.926971 Z" fill="#4B635B"></path>
        <path d="M96.2632612,117.605699 C91.9487639,117.605699 87.8983117,114.942363 86.3369248,110.654271 C84.342504,105.172694 87.1677868,99.1119781 92.6493636,97.1175572 L131.627705,82.9312928 C137.104001,80.9386323 143.169998,83.7621548 145.162658,89.2437316 C147.158839,94.7253084 144.331796,100.786024 138.850219,102.780445 L99.8736382,116.966709 C98.6819146,117.399743 97.4620261,117.605699 96.2632612,117.605699 L96.2632612,117.605699 Z" fill="#B9BC63"></path>
        <path d="M74.6555685,240.149041 C70.3410712,240.149041 66.290619,237.483946 64.7292321,233.195853 C62.7348113,227.716036 65.5600941,221.65356 71.0416709,219.6609 L110.018252,205.472875 C115.499829,203.474934 121.562305,206.303737 123.554965,211.785314 C125.549386,217.26513 122.724103,223.327606 117.242527,225.320267 L78.2659455,239.508292 C77.0742219,239.943086 75.8543334,240.149041 74.6555685,240.149041 L74.6555685,240.149041 Z" fill="#E38B25"></path>
    </g>
</svg>
